X: 15046
T: Ger Collins'
R: polka
M: 2/4
K: Dmajor
|:FA AB/A/|GB Bc/B/|Ac c/B/c/d/|ed B/c/d/B/|
FA AB/A/|GB Bc/B/|Ac c/B/c/d/|1 ed d2:|2 ed d>e||
|:fd Ad|cB Bc/B/|Ac c/B/c/d/|ed B/c/d/e/|
fd Ad|cB Bc/B/|Ac c/B/c/d/|1 ed d/c/d/e/:|2 ed d2||

